!!!id: EG058
!!!page: 153-154
!!!COM: Anonymous
!!!LYR: Anonymous
!!!PTL@@FR: Chansons Populaires du Canada
!!!OTL@@FR: J'ai trouvé le nique du lièvre
!!!PUB: G. E. Desbarats
!!!YEM:
!!!PDT: 1865
!!!SMA:
!!!OMD:
!!!AGN-Laforte:
!!!AGN-type:
!!!AGN-rime:
**kern
*clefG2
*k[b-]
*F:
*M3/8
*
*
=1
4f
8a
=2
4cc
8cc
=3
8cc
8cc
8cc
=4
4dd
8cc
=5
4cc
8ff
!!LO:PB:g=original
=6
4cc
8b-
=7
4a
8cc
=8
4f
8r
=9
4f
8a
=10
4cc
8cc
=11
4cc
8cc
!!LO:PB:g=original
=12
4dd
8cc
=13
4cc
8ff
=14
4cc
8b-/
=15
4a
8cc
=16
4f
8r
=17
4.a
!!LO:PB:g=original
=18
4g
8r
=19
4.a
=20
4g
8r
=21
4f
8a
=22
4cc
8cc
=23
4cc
8cc
!!LO:PB:g=original
=24
4dd
8cc
=25
4cc
8ff
=26
4cc
8b-/
=27
4a
8cc
=28
4f
8r
==||
*
*
==|
*-
